storybook/icons/teaser/idea.svg

<svg width="86" height="86" viewBox="0 0 86 86" fill="none" xmlns="http://www.w3.org/2000/svg">
<g clip-path="url(#clip0)">
<path d="M47.6894 0.319336C29.6359 0.319336 14.9475 15.0077 14.9475 33.0614V38.3072L5.24017 52.1756C4.93554 52.6112 4.89851 53.1777 5.14341 53.649C5.3883 54.1203 5.8751 54.4149 6.4061 54.4149H14.9475V64.3798C14.9475 69.8733 19.4175 74.3447 24.9124 74.3447H30.6066V84.3096C30.6066 85.0968 31.2444 85.7331 32.0301 85.7331H69.0429C69.8301 85.7331 70.4664 85.0968 70.4664 84.3096V82.5373C70.5289 71.8505 72.5876 61.4086 76.5807 51.5106C78.9993 45.6384 80.2947 39.4416 80.4315 33.0911C80.4315 33.0811 80.4315 33.0712 80.4315 33.0612C80.4315 15.0077 65.7446 0.319336 47.6894 0.319336ZM73.9428 50.4375C69.8131 60.68 67.6848 71.4735 67.6194 82.5302V82.8861H33.4538V72.9212C33.4538 72.1339 32.816 71.4977 32.0303 71.4977H24.9124C20.9877 71.4977 17.7945 68.3047 17.7945 64.3798V52.9912C17.7945 52.204 17.1567 51.5677 16.371 51.5677H9.13935L17.5369 39.5714C17.7049 39.3321 17.7947 39.0475 17.7947 38.7556V33.0614C17.7947 16.5765 31.2047 3.16652 47.6896 3.16652C64.1688 3.16652 77.5759 16.5693 77.5844 33.0457C77.4533 39.0375 76.229 44.8869 73.9428 50.4375Z" fill="black"/>
<path d="M47.7279 15.9415C47.7165 15.9415 47.7037 15.9415 47.6895 15.9415C38.2883 15.9415 30.6296 23.5804 30.6067 32.9859C30.5954 38.1193 32.8589 42.9367 36.7921 46.1809C38.3452 47.5262 39.205 49.475 39.1481 51.5676V58.6855C39.1481 61.0401 41.0643 62.9562 43.4188 62.9562H51.9602C54.3148 62.9562 56.2309 61.0401 56.2309 58.6855V51.2203C56.2651 49.2188 57.1733 47.344 58.745 46.0628C62.5801 42.8227 64.778 38.0838 64.7723 33.0628C64.7922 23.6445 57.1461 15.9642 47.7279 15.9415ZM56.9241 43.8732C54.7203 45.6712 53.4293 48.3318 53.3822 51.199V58.6869C53.3822 59.4726 52.7445 60.1104 51.9587 60.1104H43.4173C42.6329 60.1104 41.9938 59.4726 41.9938 58.6869V51.6075C42.0721 48.6978 40.8564 45.9347 38.63 44.007C35.3315 41.2866 33.4439 37.2722 33.4539 32.9943C33.4724 25.1547 39.8556 18.7899 47.6895 18.7899C47.7009 18.7899 47.7124 18.7899 47.7209 18.7899C55.5705 18.8084 61.9423 25.2088 61.9238 33.0583C61.9238 33.0598 61.9238 33.0612 61.9238 33.0627C61.9293 37.2451 60.0986 41.1912 56.9241 43.8732Z" fill="black"/>
<path d="M54.8071 51.5677H40.5715V54.4149H54.8071V51.5677Z" fill="black"/>
<path d="M54.6393 32.3894C54.3916 31.9268 53.909 31.6377 53.3838 31.6377H41.9952C41.4699 31.6377 40.9888 31.9266 40.7397 32.3907C40.492 32.8533 40.519 33.4142 40.811 33.8513L43.4189 37.7633V52.9912H46.2661V37.3319C46.2661 37.0515 46.1822 36.7752 46.0269 36.5418L44.6546 34.4847H50.7247L49.3524 36.5418C49.1972 36.7752 49.1131 37.0515 49.1131 37.3319V52.9912H51.9603V37.7633L54.5683 33.8499C54.8586 33.4144 54.8871 32.852 54.6393 32.3894Z" fill="black"/>
<path d="M49.1131 7.43726H46.2659V13.1315H49.1131V7.43726Z" fill="black"/>
<path d="M27.7594 31.6377H22.0652V34.4849H27.7594V31.6377Z" fill="black"/>
<path d="M73.3136 30.2142H67.6194V33.0614H73.3136V30.2142Z" fill="black"/>
<path d="M30.1895 13.5495L28.1763 15.5627L32.4473 19.8338L34.4605 17.8205L30.1895 13.5495Z" fill="black"/>
<path d="M65.1909 13.551L60.9199 17.822L62.933 19.8351L67.2041 15.5641L65.1909 13.551Z" fill="black"/>
<path d="M31.0237 44.8654L26.7527 49.1365L28.7659 51.1497L33.037 46.8787L31.0237 44.8654Z" fill="black"/>
<path d="M64.3541 44.8691L62.3408 46.8823L66.6118 51.1534L68.6251 49.1401L64.3541 44.8691Z" fill="black"/>
</g>
<defs>
<clipPath id="clip0">
<rect width="85.4139" height="85.4139" fill="white" transform="translate(0 0.319336)"/>
</clipPath>
</defs>
</svg>

<svg width="86" height="86" fill="none" xmlns="http://www.w3.org/2000/svg"><g clip-path="url(#clip0)" fill="#000"><path d="M47.69.32C29.635.32 14.947 15.007 14.947 33.06v5.246L5.24 52.176a1.423 1.423 0 001.166 2.239h8.541v9.965c0 5.493 4.47 9.965 9.965 9.965h5.695v9.965c0 .787.637 1.423 1.423 1.423h37.013c.787 0 1.423-.636 1.423-1.423v-1.773a83.902 83.902 0 016.115-31.026 51.066 51.066 0 003.85-18.42v-.03C80.431 15.008 65.745.32 47.69.32zm26.253 50.117a86.818 86.818 0 00-6.324 32.093v.356H33.454v-9.965c0-.787-.638-1.423-1.424-1.423h-7.118a7.126 7.126 0 01-7.117-7.118V52.99c0-.787-.638-1.423-1.424-1.423H9.139l8.398-11.997c.168-.239.258-.523.258-.815V33.06c0-16.485 13.41-29.894 29.895-29.894 16.479 0 29.886 13.402 29.894 29.879a48.256 48.256 0 01-3.641 17.392z"/><path d="M47.728 15.941h-.038c-9.402 0-17.06 7.64-17.083 17.045a17.006 17.006 0 006.185 13.195 6.826 6.826 0 012.356 5.387v7.117a4.276 4.276 0 004.27 4.271h8.542a4.276 4.276 0 004.27-4.27V51.22a6.782 6.782 0 012.515-5.157 16.96 16.96 0 006.027-13c.02-9.419-7.626-17.099-17.044-17.122zm9.196 27.932a9.62 9.62 0 00-3.542 7.326v7.488c0 .786-.637 1.423-1.423 1.423h-8.542a1.425 1.425 0 01-1.423-1.423v-7.08a9.662 9.662 0 00-3.364-7.6 14.183 14.183 0 01-5.176-11.013c.018-7.84 6.402-14.204 14.236-14.204h.03c7.85.018 14.222 6.419 14.204 14.268v.005a14.108 14.108 0 01-5 10.81z"/><path d="M54.807 51.568H40.571v2.847h14.236v-2.847z"/><path d="M54.64 32.39a1.424 1.424 0 00-1.256-.752H41.995a1.424 1.424 0 00-1.184 2.213l2.608 3.912v15.228h2.847v-15.66c0-.28-.084-.556-.24-.79l-1.371-2.056h6.07l-1.373 2.057c-.155.233-.239.51-.239.79v15.66h2.847V37.762l2.608-3.913c.29-.436.32-.998.071-1.46zM49.113 7.437h-2.847v5.695h2.847V7.437zM27.76 31.638h-5.695v2.847h5.694v-2.847zM73.314 30.214h-5.695v2.847h5.695v-2.847zM30.19 13.55l-2.014 2.013 4.271 4.27 2.014-2.012-4.271-4.272zM65.19 13.551l-4.27 4.271 2.013 2.013 4.271-4.27-2.013-2.014zM31.024 44.865l-4.271 4.271 2.013 2.014 4.271-4.271-2.013-2.014zM64.354 44.87l-2.013 2.012 4.27 4.271 2.014-2.013-4.27-4.27z"/></g><defs><clipPath id="clip0"><path fill="#fff" transform="translate(0 .32)" d="M0 0h85.414v85.414H0z"/></clipPath></defs></svg>
